img/svg/arrow-prev.svg

<svg width="42" height="42" viewBox="0 0 42 42" fill="none" xmlns="http://www.w3.org/2000/svg">
<path fill-rule="evenodd" clip-rule="evenodd" d="M17.8687 0.174046C15.6629 0.531731 13.8935 1.10354 11.7618 2.14779C-1.25283 8.52318 -4.04486 25.8262 6.30169 35.986C8.63346 38.2757 11.2808 39.8963 14.3669 40.923C22.5823 43.6562 31.6376 41.0765 37.1201 34.441C40.3389 30.5451 41.9973 25.9755 42 20.994C42.0056 10.9939 35.0824 2.48947 25.2191 0.381159C23.3179 -0.025294 19.7229 -0.126488 17.8687 0.174046ZM24.0345 13.1435C24.3818 13.4576 24.644 13.8341 24.644 14.0186C24.644 14.2373 23.5689 15.4195 21.3354 17.6569L18.0269 20.9711L21.3354 24.2955C23.5222 26.4926 24.644 27.7274 24.644 27.9371C24.644 28.2614 23.5685 29.3566 23.25 29.3566C22.9447 29.3566 15.052 21.3371 15.052 21.0268C15.052 20.7608 23.0571 12.5924 23.3179 12.5924C23.3768 12.5924 23.6994 12.8404 24.0345 13.1435Z" fill="#061428"/>
</svg>

<svg width="42" height="42" fill="none" xmlns="http://www.w3.org/2000/svg"><path fill-rule="evenodd" clip-rule="evenodd" d="M17.869.174c-2.206.358-3.976.93-6.107 1.974-13.015 6.375-15.807 23.678-5.46 33.838 2.331 2.29 4.979 3.91 8.065 4.937 8.215 2.733 17.27.154 22.753-6.482 3.219-3.896 4.877-8.466 4.88-13.447.006-10-6.918-18.505-16.78-20.613-1.902-.406-5.497-.507-7.351-.207zm6.166 12.97c.347.314.609.69.609.875 0 .218-1.075 1.4-3.309 3.638l-3.308 3.314 3.308 3.325c2.187 2.197 3.309 3.431 3.309 3.641 0 .324-1.075 1.42-1.394 1.42-.305 0-8.198-8.02-8.198-8.33 0-.266 8.005-8.435 8.266-8.435.059 0 .381.248.716.551z" fill="#061428"/></svg>
